X: 11
T: Missa Caput / Sanctus
N: Derived from Ock1003d-Missa_Caput-Sanctus.krn
C: Johannes Ockeghem
%%abc-version 2.0
%%abcx-abcm2ps-target-version 5.9.1 (29 Sep 2008)
%%abc-creator hum2abc beta
%%abcx-conversion-date 2019/02/17 07:26:13
%%abc-edited-by Jesse Rodin
%%abc-edited-by Will Watson 14/3/2012
%%abcx-initial-encoding-date 2012/03/14/
%%humdrum-veritas 4010928924
%%humdrum-veritas-data 1473065226
%%linebreak <none>
%%barnumbers 0
L: 1/4
M: 3/1
Q: 1/2=120
%%staves [1 2 3 4]
V: 1 clef=treble
V: 2 clef=treble-8
V: 3 clef=treble-8
V: 4 clef=bass
K: C
[V:1] A12 | 
[V:2] A12 | 
[V:3] z12 | 
[V:4] z12 | 
[V:1] G4F6E2 | 
[V:2] c4d6c2 | 
[V:3] z12 | 
[V:4] z12 | 
[V:1] E4D6C2 | 
[V:2] c4B6A2 | 
[V:3] z12 | 
[V:4] z12 | 
[V:1] C3DF2E4A2 | 
[V:2] A6G2F4 | 
[V:3] z12 | 
[V:4] z12 | 
[V:1] G2c4B2G2A2 | 
[V:2] E4A2G2c4 | 
[V:3] z12 | 
[V:4] z12 | 
[V:1] G3EEDG4^F2 | 
[V:2] B2G4B2A4 | 
[V:3] z12 | 
[V:4] z12 | 
[V:1] G6A2B2c2 | 
[V:2] G4z4d4- | 
[V:3] z12 | 
[V:4] z12 | 
[V:1] B4A6^F2 | 
[V:2] d4c8 | 
[V:3] z12 | 
[V:4] z12 | 
[V:1] ^F12 | 
[V:2] d12 | 
[V:3] z12 | 
[V:4] z12 | 
[V:1] ^F3GB2A4F2 | 
[V:2] z12 | 
[V:3] z12 | 
[V:4] z12 | 
[V:1] G2E4F2D2G2- | 
[V:2] B3ce2d4B2 | 
[V:3] z12 | 
[V:4] z12 | 
[V:1] G2F2G2E3DG2- | 
[V:2] c2A2G2c4B2 | 
[V:3] z12 | 
[V:4] z12 | 
[V:1] GAc2B2G2A3G/A/ | 
[V:2] A4G2c4d2 | 
[V:3] z12 | 
[V:4] z12 | 
[V:1] G2F2E4D4 | 
[V:2] e2d4c2B2d2- | 
[V:3] z12 | 
[V:4] z12 | 
[V:1] F2E4C2B,2A,2- | 
[V:2] d2c2e4d4 | 
[V:3] z12 | 
[V:4] z12 | 
[V:1] A,2G,4G2A2B2 | 
[V:2] c2B2e4d2B2 | 
[V:3] z12 | 
[V:4] z12 | 
[V:1] c2BA2GG3E^F2 | 
[V:2] A2d4G2A4 | 
[V:3] z12 | 
[V:4] z12 | 
[V:1] G6A3GE2 | 
[V:2] G4z4A4 | 
[V:3] G4c6B2 | 
[V:4] z12 | 
[V:1] D8z4 | 
[V:2] B3cd4G3F | 
[V:3] B6d4c2 | 
[V:4] B,,12- | 
[V:1] z4z4G4 | 
[V:2] D4z4z4 | 
[V:3] B2G4F2G2E2 | 
[V:4] B,,12 | 
[V:1] F6G2A2GA | 
[V:2] d12 | 
[V:3] D12 | 
[V:4] D,12- | 
[V:1] _B2A4G2F2D2 | 
[V:2] A4d8 | 
[V:3] z4z4A3B | 
[V:4] D,12 | 
[V:1] E4C4z4 | 
[V:2] G8A2G2 | 
[V:3] c12 | 
[V:4] C,12- | 
[V:1] E6F2G4 | 
[V:2] c2d2e4c4 | 
[V:3] A2G2c2d2e4 | 
[V:4] C,12 | 
[V:1] F4G2A4B2- | 
[V:2] z4d4B4 | 
[V:3] d4B2A2d4 | 
[V:4] D,12 | 
[V:1] B2A4G2F3E | 
[V:2] G2F2G2E2D4 | 
[V:3] G2A2B2c2d4 | 
[V:4] z4z4B,,4 | 
[V:1] G6F2E4 | 
[V:2] z4B8- | 
[V:3] G12 | 
[V:4] E,12 | 
[V:1] D4G4A2B2- | 
[V:2] B8d4 | 
[V:3] z12 | 
[V:4] G,8D,4 | 
[V:1] B2c2B2G2F4- | 
[V:2] z4d8 | 
[V:3] G6B4A2 | 
[V:4] E,4B,,4D,4 | 
[V:1] F2G2_B2A4F2 | 
[V:2] d4z2A2d4 | 
[V:3] A2d3cd2A2B2 | 
[V:4] D,12 | 
[V:1] E4A2B2c4 | 
[V:2] e4c4A4 | 
[V:3] c8e4 | 
[V:4] C,4A,,8 | 
[V:1] d3cBAA3FG2 | 
[V:2] z2f4e2d4 | 
[V:3] d2d4c2B4 | 
[V:4] z4z4B,,4 | 
[V:1] z2A4D2F3G | 
[V:2] z4d8 | 
[V:3] A6B2A2d2- | 
[V:4] D,12- | 
[V:1] A4D4z4 | 
[V:2] A4B4c4 | 
[V:3] d2A2d2f2e4 | 
[V:4] D,8C,4 | 
[V:1] F3GA8 | 
[V:2] A8d4- | 
[V:3] d8A4- | 
[V:4] D,12- | 
[V:1] F8G4 | 
[V:2] d4A4B4 | 
[V:3] A4d8 | 
[V:4] D,8B,,4 | 
[V:1] E4D2G3AB2- | 
[V:2] c4G4z4 | 
[V:3] c4B4G4- | 
[V:4] z4z4E,4 | 
[V:1] BGG2D2G4F2 | 
[V:2] d12- | 
[V:3] G4B4A4- | 
[V:4] G,8D,4- | 
[V:1] F2E2G3FD4 | 
[V:2] d4B8 | 
[V:3] A4G8 | 
[V:4] D,4E,4B,,4 | 
[V:1] z4D4F4 | 
[V:2] A4z4d4 | 
[V:3] D4A6GF | 
[V:4] D,8D,4 | 
[V:1] G4A6GF | 
[V:2] e6c2c4- | 
[V:3] E4z4A4- | 
[V:4] C,4A,,8 | 
[V:1] E4F2D4B,2 | 
[V:2] c2Bcd4z4 | 
[V:3] A4D8 | 
[V:4] z4z4B,,4 | 
[V:1] A,4z4A4- | 
[V:2] d6e2f4 | 
[V:3] F3GA6F2- | 
[V:4] D,12- | 
[V:1] A2GFE4G3A | 
[V:2] d4e8 | 
[V:3] F4A3GE4 | 
[V:4] D,4C,8 | 
[V:1] B4A6F2- | 
[V:2] d8A4- | 
[V:3] F6D2F2G2 | 
[V:4] D,12- | 
[V:1] F2EFG3FD4 | 
[V:2] A4d8 | 
[V:3] A2GAB2G4F2 | 
[V:4] D,4B,,8 | 
[V:1] z4E8 ||  
[V:2] c12 ||  
[V:3] A12 ||  
[V:4] A,,12 ||  
[V:1]  [K:C] [M:3/1]G6A2B2AB | 
[V:2]  [K:C] [M:3/1]e12 | 
[V:3]  [K:C] [M:3/1]z12 | 
[V:4]  [K:C] [M:3/1]z12 | 
[V:1] c4d2c2A4 | 
[V:2] e4f8 | 
[V:3] z12 | 
[V:4] z12 | 
[V:1] G2A4F2E2A2- | 
[V:2] e2f2d4c4 | 
[V:3] z12 | 
[V:4] z12 | 
[V:1] AG/A/G2D2F2E4 | 
[V:2] f2e2f2d4^c2 | 
[V:3] z12 | 
[V:4] z12 | 
[V:1] D8z4 | 
[V:2] d4z2d2f3g | 
[V:3] z12 | 
[V:4] z4z4D,4 | 
[V:1] z12 | 
[V:2] a8f4 | 
[V:3] z12 | 
[V:4] D,8D,4 | 
[V:1] z12 | 
[V:2] g4a8 | 
[V:3] z12 | 
[V:4] E,4F,8 | 
[V:1] z12 | 
[V:2] d4e2g4f2 | 
[V:3] z12 | 
[V:4] G,8D,4 | 
[V:1] z12 | 
[V:2] e2c4B2A4 | 
[V:3] z12 | 
[V:4] E,4F,8 | 
[V:1] z12 | 
[V:2] G4z4z4 | 
[V:3] d2cde2d3cA2 | 
[V:4] G,8D,4 | 
[V:1] z12 | 
[V:2] z12 | 
[V:3] G2d4B3AA2 | 
[V:4] G,8D,4 | 
[V:1] z12 | 
[V:2] z12 | 
[V:3] E2G4F2E4 | 
[V:4] E,4C,8 | 
[V:1] A4B2d4c2 | 
[V:2] z12 | 
[V:3] D4z4z4 | 
[V:4] D,8E,4 | 
[V:1] A2GAB2G4F2 | 
[V:2] z4z4d4 | 
[V:3] z12 | 
[V:4] C,4B,,8 | 
[V:1] A3GE4A2c2 | 
[V:2] c6d2e4- | 
[V:3] z12 | 
[V:4] A,,12- | 
[V:1] B2A4F2E3C | 
[V:2] e2f4edc4 | 
[V:3] z2A2F3GA4 | 
[V:4] A,,12 | 
[V:1] D2A,2z4z4 | 
[V:2] f4e2f4d2 | 
[V:3] D4A4B4 | 
[V:4] z12 | 
[V:1] z12 | 
[V:2] c2f2e2g3fed | 
[V:3] A6G6 | 
[V:4] z12 | 
[V:1] z12 | 
[V:2] f2e3dd4^c2 | 
[V:3] A4D2F2E4 | 
[V:4] z12 | 
[V:1] A8F4 | 
[V:2] d12 | 
[V:3] z4A8 | 
[V:4] D,12 | 
[V:1] G4A8 | 
[V:2] z12 | 
[V:3] G4c8 | 
[V:4] E,4F,8 | 
[V:1] B6c2d4 | 
[V:2] g8f4 | 
[V:3] e4d6c2 | 
[V:4] G,8D,4 | 
[V:1] G4A2A4F2 | 
[V:2] e4d4c4 | 
[V:3] B4A8 | 
[V:4] E,4F,8 | 
[V:1] E4D8 | 
[V:2] B8A4- | 
[V:3] G8F4- | 
[V:4] G,8D,4- | 
[V:1] F4E4D4- | 
[V:2] A4B8 | 
[V:3] F4z4G4 | 
[V:4] D,4G,8 | 
[V:1] D4z4G4 | 
[V:2] d4c3de4 | 
[V:3] F2A4GFE4 | 
[V:4] D,4E,4C,4 | 
[V:1] F3GA2F2G2E2 | 
[V:2] A6B2c2A2 | 
[V:3] D2F4EDC4 | 
[V:4] D,8E,4 | 
[V:1] D2G2F2E4DC | 
[V:2] B2G2A2E2F4 | 
[V:3] B,2D4E2C3B, | 
[V:4] B,,4A,,8 | 
[V:1] B,12 ||  
[V:2] G12 ||  
[V:3] D12 ||  
[V:4] G,,12 ||  
[V:1]  [K:C] [M:3/1]z12 | 
[V:2]  [K:C] [M:3/1]G2A2G2E4A2 | 
[V:3]  [K:C] [M:3/1]E8C4 | 
[V:4]  [K:C] [M:3/1]C,12 | 
[V:1] z12 | 
[V:2] G2c4B2B2A2 | 
[V:3] E4F8 | 
[V:4] C,4D,8 | 
[V:1] E4F2G4A2 | 
[V:2] c6d2e4 | 
[V:3] G4A2G2c4 | 
[V:4] C,12 | 
[V:1] B2c4A4^G2 | 
[V:2] d2A4c2B4 | 
[V:3] z4c4d4 | 
[V:4] z12 | 
[V:1] A6F2F4 | 
[V:2] A4d8 | 
[V:3] D4F3G_B2A2- | 
[V:4] D,12 | 
[V:1] z12 | 
[V:2] z12 | 
[V:3] A2G4F2E4 | 
[V:4] C,12 | 
[V:1] A8F4 | 
[V:2] d4A4B4 | 
[V:3] D4z4D4 | 
[V:4] D,12 | 
[V:1] G6E4D2 | 
[V:2] c4B8- | 
[V:3] C4G8 | 
[V:4] E,12 | 
[V:1] D12 | 
[V:2] B12 | 
[V:3] G4D4G4 | 
[V:4] B,,8G,,4- | 
[V:1] E8F4 | 
[V:2] G4c8 | 
[V:3] B4A8 | 
[V:4] G,,4A,,8 | 
[V:1] G4A8 | 
[V:2] d4c3BA4 | 
[V:3] G4^F2^F4E2 | 
[V:4] B,,4A,,8 | 
[V:1] B6G2G4 | 
[V:2] D4G8 | 
[V:3] G3FD4z4 | 
[V:4] G,,12 | 
[V:1] z4z4G4 | 
[V:2] G6A2G2D2- | 
[V:3] D12 | 
[V:4] B,,6A,,2B,,4 | 
[V:1] B4A3FE4 | 
[V:2] D2d2c2A2c3d | 
[V:3] G4F2G2A4 | 
[V:4] G,,4A,,8 | 
[V:1] z2D4G3FED | 
[V:2] e2d2B8 | 
[V:3] B4G8 | 
[V:4] G,,12 | 
[V:1] C2F2G2A4D2 | 
[V:2] c4d2c4A2 | 
[V:3] A4_B2A2F4 | 
[V:4] z12 | 
[V:1] EDE2F2D4^C2 | 
[V:2] _B2A4F2G4 | 
[V:3] G2A2D4E4 | 
[V:4] z12 | 
[V:1] D12 ||  
[V:2] A12 ||  
[V:3] D12 ||  
[V:4] D,12 ||  
[V:1] [M:2/1]E8 | 
[V:2] [M:2/1]A8- | 
[V:3] [M:2/1]z8 | 
[V:4] [M:2/1]z8 | 
[V:1] F4A4- | 
[V:2] A8 | 
[V:3] z8 | 
[V:4] z8 | 
[V:1] A2G2G4 | 
[V:2] B8 | 
[V:3] z8 | 
[V:4] z8 | 
[V:1] F4E4- | 
[V:2] A8 | 
[V:3] z8 | 
[V:4] z8 | 
[V:1] E4D4- | 
[V:2] c4d4 | 
[V:3] z8 | 
[V:4] z8 | 
[V:1] D2B,2C4 | 
[V:2] e8 | 
[V:3] z8 | 
[V:4] z8 | 
[V:1] D4A,4 | 
[V:2] f8- | 
[V:3] z8 | 
[V:4] z8 | 
[V:1] z4A4- | 
[V:2] f8 | 
[V:3] z8 | 
[V:4] z8 | 
[V:1] A2G2G2A2 | 
[V:2] e8- | 
[V:3] z8 | 
[V:4] z8 | 
[V:1] c6B2 | 
[V:2] e4d4 | 
[V:3] z8 | 
[V:4] z8 | 
[V:1] A2A4G2 | 
[V:2] A2c2B4 | 
[V:3] z8 | 
[V:4] z8 | 
[V:1] F2E4G2 | 
[V:2] A4c2B2 | 
[V:3] z8 | 
[V:4] z8 | 
[V:1] F2A4F2 | 
[V:2] d4A3B | 
[V:3] z8 | 
[V:4] z8 | 
[V:1] E2D2E4 | 
[V:2] c2d4^c2 | 
[V:3] z8 | 
[V:4] z8 | 
[V:1] D8 | 
[V:2] d8 | 
[V:3] z8 | 
[V:4] z8 | 
[V:1] z8 | 
[V:2] z8 | 
[V:3] z8 | 
[V:4] z8 | 
[V:1] A,8 | 
[V:2] e8- | 
[V:3] z8 | 
[V:4] z8 | 
[V:1] G,4A,4- | 
[V:2] e8- | 
[V:3] z8 | 
[V:4] z8 | 
[V:1] A,4C4 | 
[V:2] e8 | 
[V:3] z8 | 
[V:4] z8 | 
[V:1] D4B,4 | 
[V:2] f8- | 
[V:3] z8 | 
[V:4] z8 | 
[V:1] D4D4- | 
[V:2] f8 | 
[V:3] z8 | 
[V:4] z8 | 
[V:1] D4C4 | 
[V:2] e8 | 
[V:3] z8 | 
[V:4] z8 | 
[V:1] F6G2 | 
[V:2] d8 | 
[V:3] z8 | 
[V:4] z8 | 
[V:1] A4B4 | 
[V:2] z4d4 | 
[V:3] z8 | 
[V:4] z8 | 
[V:1] c4B2A2- | 
[V:2] A4d4- | 
[V:3] z8 | 
[V:4] z8 | 
[V:1] A2F2E4 | 
[V:2] d4c2d2 | 
[V:3] z8 | 
[V:4] z8 | 
[V:1] B2c2d3c | 
[V:2] e4d2d2- | 
[V:3] z8 | 
[V:4] z8 | 
[V:1] BAA4^G2 | 
[V:2] d2c2B4 | 
[V:3] z8 | 
[V:4] z8 | 
[V:1] A4c4 | 
[V:2] A8 | 
[V:3] z8 | 
[V:4] z8 | 
[V:1] B4B4- | 
[V:2] d8 | 
[V:3] B6c2 | 
[V:4] B,,8- | 
[V:1] B4G4 | 
[V:2] B8 | 
[V:3] d8 | 
[V:4] B,,8 | 
[V:1] B4A4- | 
[V:2] z4A4 | 
[V:3] D8 | 
[V:4] D,8- | 
[V:1] A4F4 | 
[V:2] d8 | 
[V:3] A6B2 | 
[V:4] D,8 | 
[V:1] G4E4 | 
[V:2] e8 | 
[V:3] c8 | 
[V:4] C,8 | 
[V:1] F4D4- | 
[V:2] d8 | 
[V:3] A8 | 
[V:4] D,8 | 
[V:1] D4F4 | 
[V:2] z4D4 | 
[V:3] d8 | 
[V:4] B,,8 | 
[V:1] E8 | 
[V:2] A4G4- | 
[V:3] c8 | 
[V:4] z4E,4 | 
[V:1] D8 | 
[V:2] G4B2c2 | 
[V:3] B8 | 
[V:4] G,8 | 
[V:1] z4D4 | 
[V:2] d4f4 | 
[V:3] A4A4 | 
[V:4] D,8 | 
[V:1] B,8 | 
[V:2] e4d4- | 
[V:3] z4G4 | 
[V:4] E,4B,,4 | 
[V:1] A,8 | 
[V:2] d4d4 | 
[V:3] F4A4- | 
[V:4] D,8- | 
[V:1] A4A4- | 
[V:2] f8 | 
[V:3] A8 | 
[V:4] D,8 | 
[V:1] A8 | 
[V:2] e8 | 
[V:3] c8 | 
[V:4] C,4A,,4 | 
[V:1] G4F4 | 
[V:2] d8 | 
[V:3] B8 | 
[V:4] B,,4D,4- | 
[V:1] E8 | 
[V:2] A8 | 
[V:3] z4c4 | 
[V:4] D,4C,4 | 
[V:1] z4F4- | 
[V:2] d6c2 | 
[V:3] A8 | 
[V:4] D,8- | 
[V:1] F4D4 | 
[V:2] A4z4 | 
[V:3] d8 | 
[V:4] D,4B,,4 | 
[V:1] E6DC | 
[V:2] A4G4- | 
[V:3] c8 | 
[V:4] z4E,4 | 
[V:1] B,4z4 | 
[V:2] G4B4 | 
[V:3] z4d4 | 
[V:4] G,8- | 
[V:1] B4A4 | 
[V:2] G4A4 | 
[V:3] d6c2 | 
[V:4] G,4D,4- | 
[V:1] d4c4 | 
[V:2] F4z4 | 
[V:3] A4G4- | 
[V:4] D,4E,4 | 
[V:1] B6A2 | 
[V:2] d8- | 
[V:3] G4z4 | 
[V:4] B,,4D,4- | 
[V:1] A6F2 | 
[V:2] d4B4 | 
[V:3] A4D4 | 
[V:4] D,8 | 
[V:1] G4A4 | 
[V:2] c8 | 
[V:3] E4F4- | 
[V:4] C,4A,,4 | 
[V:1] D8 | 
[V:2] B4A4 | 
[V:3] F4D4 | 
[V:4] B,,4D,4- | 
[V:1] F4E4 | 
[V:2] z4c4 | 
[V:3] A8 | 
[V:4] D,4C,4 | 
[V:1] D2D4C2 | 
[V:2] A8 | 
[V:3] z4F4 | 
[V:4] D,8- | 
[V:1] B,2A,2A,4- | 
[V:2] z8 | 
[V:3] F6E2 | 
[V:4] D,8 | 
[V:1] A,4^G,4 | 
[V:2] d8 | 
[V:3] D8 | 
[V:4] B,,8 | 
[V:1] A,8 | 
[V:2] c8 | 
[V:3] E8 | 
[V:4] A,,8 | 
[V:1] z4D4 | 
[V:2] d8- | 
[V:3] F6G2 | 
[V:4] D,8 | 
[V:1] F6G2 | 
[V:2] d8 | 
[V:3] A8 | 
[V:4] z4D,4 | 
[V:1] A8 | 
[V:2] f8 | 
[V:3] z4d4 | 
[V:4] D,8 | 
[V:1] G4A4 | 
[V:2] z4f4 | 
[V:3] c8 | 
[V:4] E,4F,4 | 
[V:1] B4G4- | 
[V:2] d8 | 
[V:3] B8 | 
[V:4] G,8- | 
[V:1] G4F4 | 
[V:2] G4A4 | 
[V:3] d8 | 
[V:4] G,4D,4 | 
[V:1] G2A4F2 | 
[V:2] G4D4 | 
[V:3] c4A4 | 
[V:4] E,4F,4 | 
[V:1] E4D4- | 
[V:2] _B8 | 
[V:3] G8 | 
[V:4] G,8 | 
[V:1] D8 | 
[V:2] A4G4 | 
[V:3] F4_B4- | 
[V:4] D,4G,4- | 
[V:1] E4F4 | 
[V:2] z4d4 | 
[V:3] B2G2A4 | 
[V:4] G,4D,4 | 
[V:1] G4E4 | 
[V:2] B4c4 | 
[V:3] G8 | 
[V:4] E,4C,4 | 
[V:1] F4D4 | 
[V:2] A4B4 | 
[V:3] F8 | 
[V:4] D,8 | 
[V:1] C4E2G2- | 
[V:2] c4A4- | 
[V:3] E8 | 
[V:4] E,4C,4 | 
[V:1] G2F2D4 | 
[V:2] A2F2G4 | 
[V:3] D8 | 
[V:4] B,,8 | 
[V:1] z4A4 | 
[V:2] A4c4- | 
[V:3] E8 | 
[V:4] A,,8 | 
[V:1] A6B2 | 
[V:2] c2d2f2e2- | 
[V:3] z8 | 
[V:4] z8 | 
[V:1] c4A2A2- | 
[V:2] e2c2d2A2 | 
[V:3] z8 | 
[V:4] z8 | 
[V:1] A2G2A2E2 | 
[V:2] B4A4 | 
[V:3] z8 | 
[V:4] z8 | 
[V:1] z2G3FE2 | 
[V:2] B4c4 | 
[V:3] z8 | 
[V:4] z8 | 
[V:1] D2F2E2A2 | 
[V:2] d4A4 | 
[V:3] z8 | 
[V:4] z8 | 
[V:1] BAGFE4 | 
[V:2] d4c4 | 
[V:3] z4A4 | 
[V:4] z8 | 
[V:1] D2D4B,2 | 
[V:2] d4f4- | 
[V:3] B4A4 | 
[V:4] z4D,4 | 
[V:1] A,4z4 | 
[V:2] f4f4 | 
[V:3] d8 | 
[V:4] D,8- | 
[V:1] A8 | 
[V:2] d4f4 | 
[V:3] A4d4 | 
[V:4] D,8 | 
[V:1] G4c4- | 
[V:2] e8 | 
[V:3] B4G4 | 
[V:4] E,8 | 
[V:1] c4A4 | 
[V:2] z4c4 | 
[V:3] A8 | 
[V:4] F,8 | 
[V:1] B4G4 | 
[V:2] e4d4 | 
[V:3] G4_B4- | 
[V:4] G,8- | 
[V:1] D4F4 | 
[V:2] G4d4 | 
[V:3] B4A4 | 
[V:4] G,4D,4 | 
[V:1] G4A4 | 
[V:2] c4d4 | 
[V:3] G4D4 | 
[V:4] E,4F,4 | 
[V:1] B6A2 | 
[V:2] z4f4 | 
[V:3] d8- | 
[V:4] G,4D,4 | 
[V:1] B4G4 | 
[V:2] g4d4 | 
[V:3] d8 | 
[V:4] G,8 | 
[V:1] A4G2G2- | 
[V:2] f4e4- | 
[V:3] z4B4 | 
[V:4] D,4E,4 | 
[V:1] G2F2E4 | 
[V:2] e4g4 | 
[V:3] c8 | 
[V:4] C,8 | 
[V:1] D8 | 
[V:2] f8 | 
[V:3] A4F4 | 
[V:4] D,8 | 
[V:1] C4B,4- | 
[V:2] e8 | 
[V:3] G4E4 | 
[V:4] E,8 | 
[V:1] B,4D4 | 
[V:2] z8 | 
[V:3] D8 | 
[V:4] B,,4G,,4 | 
[V:1] C4F4- | 
[V:2] f8 | 
[V:3] z4A4- | 
[V:4] A,,8 | 
[V:1] F2E2E4- | 
[V:2] c8 | 
[V:3] A8 | 
[V:4] z4C,4 | 
[V:1] E4C4- | 
[V:2] e8 | 
[V:3] G4E4 | 
[V:4] C,8 | 
[V:1] C2A,2B,4 | 
[V:2] f8 | 
[V:3] D4F4 | 
[V:4] D,8 | 
[V:1] C4E4 | 
[V:2] g8 | 
[V:3] E4C4- | 
[V:4] C,8 | 
[V:1] D4F4 | 
[V:2] z8 | 
[V:3] C2A,2B,4 | 
[V:4] D,8 | 
[V:1] E8 | 
[V:2] z8 | 
[V:3] C4E4 | 
[V:4] C,8 | 
[V:1] A,8 | 
[V:2] f8 | 
[V:3] D8 | 
[V:4] D,8 | 
[V:1] z8 | 
[V:2] e4c4 | 
[V:3] C8 | 
[V:4] E,8 | 
[V:1] z8 | 
[V:2] z4B4 | 
[V:3] D8 | 
[V:4] B,,4G,,4 | 
[V:1] E8 | 
[V:2] c4e4 | 
[V:3] C8 | 
[V:4] A,,8 | 
[V:1] F4G4- | 
[V:2] d4c4- | 
[V:3] D4E4- | 
[V:4] z4C,4 | 
[V:1] G4E4 | 
[V:2] c4c4 | 
[V:3] E4C4 | 
[V:4] C,8 | 
[V:1] D4F4 | 
[V:2] B4A4 | 
[V:3] F4A4- | 
[V:4] D,8 | 
[V:1] E4C4 | 
[V:2] c4e4 | 
[V:3] A2G2E4 | 
[V:4] C,8 | 
[V:1] z4F4 | 
[V:2] d4B4 | 
[V:3] F4D4 | 
[V:4] D,8 | 
[V:1] G4A4- | 
[V:2] c8 | 
[V:3] E8 | 
[V:4] C,8 | 
[V:1] A4F4 | 
[V:2] z4d4 | 
[V:3] D8 | 
[V:4] D,8 | 
[V:1] G4E4 | 
[V:2] B4c4 | 
[V:3] z4C4 | 
[V:4] E,8 | 
[V:1] D8 | 
[V:2] B8 | 
[V:3] D6E2 | 
[V:4] B,,4G,,4 | 
[V:1] C8 | 
[V:2] A8 | 
[V:3] F2G2E4 | 
[V:4] A,,8 | 
[V:1] z4D4 | 
[V:2] z4G4 | 
[V:3] D8 | 
[V:4] B,,8 | 
[V:1] E4F4 | 
[V:2] A8 | 
[V:3] C6D2 | 
[V:4] A,,8 | 
[V:1] G4D4- | 
[V:2] B8- | 
[V:3] E4G4- | 
[V:4] G,,8 | 
[V:1] D4A4 | 
[V:2] B4c4 | 
[V:3] G4F4 | 
[V:4] B,,4A,,4 | 
[V:1] G4B4 | 
[V:2] B8 | 
[V:3] G4E4 | 
[V:4] B,,4G,,4 | 
[V:1] A2A4F2 | 
[V:2] z4A4 | 
[V:3] F8 | 
[V:4] A,,8 | 
[V:1] G3FD4 | 
[V:2] B8 | 
[V:3] z4G4 | 
[V:4] G,,8- | 
[V:1] z4G4 | 
[V:2] G8 | 
[V:3] _B8 | 
[V:4] G,,8 | 
[V:1] F2E4C2 | 
[V:2] c6A2 | 
[V:3] A4z2A2- | 
[V:4] z8 | 
[V:1] B,4A,4 | 
[V:2] d4c2d2- | 
[V:3] A2G2A2D2- | 
[V:4] z8 | 
[V:1] B,2D4^C2 | 
[V:2] d2A4G2 | 
[V:3] D2F2E4 | 
[V:4] z8 | 
[V:1] D8 |]  
[V:2] A8 |]  
[V:3] D8 |]  
[V:4] D,8 |]  



